X:1
T:Day of Redemption
T:Day of Redemption
T:Fred C. Pullin
T:Flora Kirkland, 1903
T:Public Domain Courtesy of the Cyber Hymnal™
T:Public Domain Courtesy of the Cyber Hymnal™
C:Fred C. Pullin
Z:Public Domain
Z:Courtesy of the Cyber Hymnal™
%%score ( 1 2 ) ( 3 4 )
L:1/8
Q:1/4=90
M:6/8
K:Ab
V:1 treble 
V:2 treble 
V:3 bass 
V:4 bass 
V:1
 ([CE]/[CE]/) | [Ec][DB][CA] [EA][EB][Ec] | [DB][DA][DF] [FA]2 [DF] | [CE][EA][EB] [Ec][Ed][Ec] | %4
w: 1.~The *|day of re- demp- tion hath|come with a song— The|song of re- demp- tion from|
w: 2.~Re- *|demp- tion most won- der- ful!|Gift from the sky, Re-|deem- er most gen- tle, so|
w: 3.~O *|mar- vel of ten- der- ness!|Mar- vel of light! The|King from the glo- ry, so|
 ([=Dc][DB])[DF] !fermata![_DB]2 [DE] | [Cc][CB][CA] [EA][EB][Ec] | %6
w: sin * so strong. The|an- gels first chant- ed it|
w: low * to lie! O|her- ald so glor- i- ous|
w: won- * drous bright! Is|rest- ing all qui- et- ly,|
 [DB][DA][DF] [FA]2 ([=B,F]/[B,F]/) | [CE][EA][EB] [Ec][Ed][Ec] | ([=DB][DF])[_DG] [CA]2 z || %9
w: o- ver a hill; As *|Christ- mas re- turn- eth it|e- * choes still.|
w: sent from a- bove, To *|speak to the shep- herds of|God’s * great love.|
w: pil- lowed on hay, And *|gone is earth’s dark- ness! Be-|hold! * ’tis day!|
"^Refrain" C3 E3 | [B,D][DF][Fd] [Ec]2 [EB] | [Ee]2 [Ec] [CA]2 [Ec] | %12
w: |||
w: Hail! Hail!|day of re- demp- tion!|Hark the an- gel|
w: |||
 (BF)[_DA]"^rall." (GF!fermata![DE]) |"^a tempo" C3 E3 | [B,D][DF][Fd] [Ec]2 [EB] | %15
w: |||
w: chor- * us rings! * *|Hail! Hail!|day of re- demp- tion!|
w: |||
 [Ee]2 [Af] (ed)[Ec] | [=Dc]2 [_DB] [CA]3 |] %17
w: ||
w: Bow be- fore * the|King of kings!|
w: ||
V:2
 x | x6 | x6 | x6 | x6 | x6 | x6 | x6 | x6 || (A,2 A,) (C2 C) | x6 | x6 | =D2 _D2 x2 | %13
 (A,2 A,) (C2 C) | x6 | x3 E2 x | x6 |] %17
V:3
 ([A,,A,]/[A,,A,]/) | [A,,A,][A,,E,][A,,E,] [C,A,][B,,G,][A,,A,] | %2
 [D,F,][D,F,][D,A,] [D,D]2 [D,A,] | [A,,A,][C,A,][E,G,] A,[G,B,]A, | %4
 ([F,A,][F,A,])[B,,A,] !fermata![E,G,]2 [E,G,] | [A,,A,][A,,E,][A,,E,] [C,A,][B,,G,][A,,A,] | %6
 [D,F,][D,F,][D,A,] [D,D]2 ([=D,A,]/[D,A,]/) | [E,A,][E,C][E,G,] [E,A,][E,B,][E,A,] | %8
 ([F,A,][B,,A,])[E,B,] [A,,A,]2 z || ([A,,E,]2 [A,,E,]) ([=A,,_G,]2 [A,,G,]) | %10
 F,B,[B,,A,] [E,G,]2 [D,G,] | [C,A,]2 [A,,A,] [A,,A,]2 [A,,A,] | %12
 [B,,F,]2 [B,,B,] ([E,B,][F,A,]!fermata![G,B,]) | ([A,,E,A,]2 [A,,E,]) ([=A,,_G,]2 [A,,G,]) | %14
 F,B,[B,,A,] [E,G,]2 [D,G,] | [C,A,]2 [D,A,] ([C,A,][B,,G,])[A,,A,] | A,2 [E,G,] [A,,A,]3 |] %17
V:4
 x | x6 | x6 | x3 A,A, x | x6 | x6 | x6 | x6 | x6 || x6 | B,,2 x4 | x6 | x6 | x6 | B,,2 x4 | x6 | %16
 (F,B,,) x4 |] %17

